src/images/app_2/statement/ic_purchase.svg

<?xml version="1.0" encoding="UTF-8"?>
<svg width="16px" height="16px" viewBox="0 0 16 16" version="1.1" xmlns="http://www.w3.org/2000/svg" xmlns:xlink="http://www.w3.org/1999/xlink">
    <!-- Generator: Sketch 50.2 (55047) - http://www.bohemiancoding.com/sketch -->
    <title>icons/system/light/purchase/ic-purchase</title>
    <desc>Created with Sketch.</desc>
    <defs></defs>
    <g id="icons/system/light/purchase/ic-purchase" stroke="none" stroke-width="1" fill="none" fill-rule="evenodd">
        <g id="Group">
            <rect id="container" fill="#D8D8D8" opacity="0" x="0" y="0" width="16" height="16"></rect>
            <path d="M13,9 L12,9 L12,2 L4,2 L4,14 L9,14 L9,15 L4,15 C3.44771525,15 3,14.5522847 3,14 L3,2 C3,1.44771525 3.44771525,1 4,1 L12,1 C12.5522847,1 13,1.44771525 13,2 L13,9 Z M5.5,4 L10.5,4 C10.7761424,4 11,4.22385763 11,4.5 C11,4.77614237 10.7761424,5 10.5,5 L5.5,5 C5.22385763,5 5,4.77614237 5,4.5 C5,4.22385763 5.22385763,4 5.5,4 Z M5.5,6 L10.5,6 C10.7761424,6 11,6.22385763 11,6.5 C11,6.77614237 10.7761424,7 10.5,7 L5.5,7 C5.22385763,7 5,6.77614237 5,6.5 C5,6.22385763 5.22385763,6 5.5,6 Z M5.5,8 L10.5,8 C10.7761424,8 11,8.22385763 11,8.5 C11,8.77614237 10.7761424,9 10.5,9 L5.5,9 C5.22385763,9 5,8.77614237 5,8.5 C5,8.22385763 5.22385763,8 5.5,8 Z M5.5,10 L8.5,10 C8.77614237,10 9,10.2238576 9,10.5 C9,10.7761424 8.77614237,11 8.5,11 L5.5,11 C5.22385763,11 5,10.7761424 5,10.5 C5,10.2238576 5.22385763,10 5.5,10 Z M12.4892578,13.8691406 C12.4892578,13.714843 12.4511723,13.5937504 12.375,13.5058594 C12.2988277,13.4179683 12.16504,13.3349613 11.9736328,13.2568359 C11.7822256,13.1787105 11.6054696,13.0996098 11.4433594,13.0195312 C11.2812492,12.9394527 11.1416021,12.8466802 11.0244141,12.7412109 C10.907226,12.6357417 10.8173831,12.5136726 10.7548828,12.375 C10.6923825,12.2363274 10.6611328,12.0683604 10.6611328,11.8710938 C10.6611328,11.541014 10.7724598,11.269044 10.9951172,11.0551758 C11.2177746,10.8413075 11.5146466,10.7167971 11.8857422,10.6816406 L11.8857422,10.0634766 L12.3515625,10.0634766 L12.3515625,10.6933594 C12.7089862,10.746094 12.9897451,10.8930652 13.1938477,11.1342773 C13.3979502,11.3754895 13.5,11.6816388 13.5,12.0527344 L12.5097656,12.0527344 C12.5097656,11.8496084 12.4707035,11.6933599 12.3925781,11.5839844 C12.3144527,11.4746088 12.2031257,11.4199219 12.0585938,11.4199219 C11.9296869,11.4199219 11.8295902,11.4604488 11.7583008,11.5415039 C11.6870114,11.622559 11.6513672,11.7343743 11.6513672,11.8769531 C11.6513672,12.0214851 11.6923824,12.13623 11.7744141,12.2211914 C11.8564457,12.3061528 11.9882803,12.3872066 12.1699219,12.4643555 C12.3515634,12.5415043 12.5229484,12.6215816 12.684082,12.7045898 C12.8452156,12.7875981 12.9843744,12.8818354 13.1015625,12.9873047 C13.2187506,13.092774 13.3105465,13.2158196 13.3769531,13.3564453 C13.4433597,13.497071 13.4765625,13.6660146 13.4765625,13.8632812 C13.4765625,14.1972673 13.3706065,14.4697255 13.1586914,14.6806641 C12.9467763,14.8916026 12.658205,15.0146483 12.2929688,15.0498047 L12.2929688,15.6386719 L11.8271484,15.6386719 L11.8271484,15.046875 C11.4013651,15.0019529 11.0747082,14.8559583 10.847168,14.6088867 C10.6196278,14.3618152 10.5058594,14.0361348 10.5058594,13.6318359 L11.4931641,13.6318359 C11.4931641,13.8544933 11.54248,14.0239252 11.6411133,14.1401367 C11.7397466,14.2563482 11.8798819,14.3144531 12.0615234,14.3144531 C12.1943366,14.3144531 12.2988277,14.2749027 12.375,14.1958008 C12.4511723,14.1166988 12.4892578,14.0078132 12.4892578,13.8691406 Z" id="Combined-Shape" fill="#2A3052"></path>
        </g>
    </g>
</svg>

<svg width="16" height="16" xmlns="http://www.w3.org/2000/svg"><path d="M13 9h-1V2H4v12h5v1H4a1 1 0 0 1-1-1V2a1 1 0 0 1 1-1h8a1 1 0 0 1 1 1v7zM5.5 4h5a.5.5 0 1 1 0 1h-5a.5.5 0 0 1 0-1zm0 2h5a.5.5 0 1 1 0 1h-5a.5.5 0 0 1 0-1zm0 2h5a.5.5 0 1 1 0 1h-5a.5.5 0 0 1 0-1zm0 2h3a.5.5 0 1 1 0 1h-3a.5.5 0 1 1 0-1zm6.99 3.87a.536.536 0 0 0-.115-.364c-.076-.088-.21-.171-.401-.25a8.175 8.175 0 0 1-.53-.236 1.84 1.84 0 0 1-.42-.279 1.093 1.093 0 0 1-.27-.366 1.222 1.222 0 0 1-.093-.504c0-.33.111-.602.334-.816.223-.214.52-.338.89-.373v-.619h.467v.63c.357.053.638.2.842.441.204.241.306.548.306.919h-.99c0-.203-.04-.36-.117-.469a.386.386 0 0 0-.334-.164.379.379 0 0 0-.3.122.49.49 0 0 0-.108.335c0 .144.041.26.123.344.082.085.214.166.396.243.182.078.353.158.514.24.161.084.3.178.418.283.117.106.209.229.275.37.066.14.1.309.1.506 0 .334-.106.607-.318.818-.212.21-.5.334-.866.369v.589h-.466v-.592c-.426-.045-.752-.191-.98-.438-.227-.247-.341-.573-.341-.977h.987c0 .222.05.392.148.508a.521.521 0 0 0 .42.174c.133 0 .238-.04.314-.118a.451.451 0 0 0 .114-.327z" fill="#2A3052" fill-rule="evenodd"/></svg>
